X:5
T:Sydney Pittman's Tune
O:Rufus Guinchard, from the playing of Sydney Pittman
M:6/8
L:1/8
K:G
e2 a a2 g|e2 a a2f|g2 g g2 f|e2 f g3|
a2 g f2 e|d2 B G2 A|B2 d d2 B|A3 A3:|
|:e2 g e2 d|B2 A G2D|G2 B d2 B| [M:9/8] A2 B d3 d3|
[M:6/8] e2 g e2 d|B2 A G2 D|G2 B d2 B|A3 A3:|




